packages/component_library/lib/src/assets/images/svg/DEN.svg

<?xml version="1.0" encoding="UTF-8"?>
<svg xmlns="http://www.w3.org/2000/svg" xmlns:xlink="http://www.w3.org/1999/xlink" width="300px" height="300px" viewBox="0 0 300 300" version="1.1">
<g id="surface1">
<path style=" stroke:none;fill-rule:nonzero;fill:rgb(100%,77.64706%,15.294118%);fill-opacity:1;" d="M 149.878906 0 C 232.546875 0.140625 299.511719 67.140625 299.613281 149.804688 C 299.613281 232.421875 232.421875 299.613281 149.878906 299.613281 C 89.277344 299.652344 34.617188 263.164062 11.414062 207.179688 C -11.789062 151.191406 1.03125 86.738281 43.894531 43.894531 C 71.9375 15.6875 110.105469 -0.121094 149.878906 0 "/>
<path style=" stroke:none;fill-rule:nonzero;fill:rgb(54.509807%,13.725491%,19.607843%);fill-opacity:1;" d="M 149.878906 287.703125 C 225.832031 287.703125 287.625 225.90625 287.625 149.804688 C 287.625 73.855469 225.832031 11.984375 149.878906 11.984375 C 73.78125 11.910156 11.984375 73.78125 11.984375 149.730469 C 11.984375 225.832031 73.78125 287.703125 149.878906 287.703125 "/>
<path style=" stroke:none;fill-rule:nonzero;fill:rgb(5.098039%,13.333334%,25.098041%);fill-opacity:1;" d="M 22.171875 149.730469 C 22.171875 79.398438 79.472656 22.171875 149.804688 22.171875 C 220.277344 22.171875 277.402344 79.296875 277.402344 149.769531 C 277.402344 220.238281 220.277344 277.367188 149.804688 277.367188 C 79.472656 277.441406 22.171875 220.140625 22.171875 149.730469 "/>
<path style=" stroke:none;fill-rule:nonzero;fill:rgb(100%,77.64706%,15.294118%);fill-opacity:1;" d="M 250.324219 96.324219 L 253.171875 94.753906 L 244.035156 80.519531 L 241.488281 82.394531 C 225.90625 62.695312 198.191406 40.746094 171.828125 37.453125 C 191.675781 46.515625 213.996094 69.660156 227.628906 87.488281 L 213.324219 97.898438 L 215.046875 100.519531 L 150.328125 142.539062 L 85.613281 100.519531 L 87.335938 97.898438 L 72.957031 87.488281 C 86.664062 69.660156 108.910156 46.515625 128.832031 37.453125 C 102.542969 40.746094 74.828125 62.695312 59.324219 82.316406 L 56.625 80.371094 L 47.488281 94.527344 L 50.335938 96.175781 L 50.261719 96.324219 C 38.875 118.722656 30.484375 153.25 38.648438 178.570312 C 38.425781 156.695312 50.183594 126.660156 60.746094 106.660156 L 76.175781 115.351562 L 77.75 112.878906 L 137.820312 150.628906 L 58.574219 202.164062 L 58.425781 202.011719 L 47.789062 204.859375 L 47.9375 205.160156 C 47.414062 207.105469 48.386719 210.777344 50.632812 214.296875 C 52.882812 217.890625 55.726562 220.214844 57.898438 220.664062 L 58.050781 220.964844 L 65.089844 212.425781 L 65.015625 212.273438 L 222.835938 113.027344 L 224.410156 115.5 L 239.914062 106.8125 C 250.476562 126.808594 262.234375 156.921875 262.085938 178.71875 C 270.175781 153.324219 261.710938 118.722656 250.324219 96.324219 "/>
<path style=" stroke:none;fill-rule:nonzero;fill:rgb(100%,77.64706%,15.294118%);fill-opacity:1;" d="M 242.160156 202.011719 L 242.011719 202.164062 L 169.128906 154.824219 L 156.398438 162.390625 L 235.570312 212.199219 L 235.496094 212.351562 L 242.535156 220.886719 L 242.761719 220.589844 C 244.855469 220.214844 247.703125 217.816406 250.027344 214.222656 C 252.199219 210.703125 253.246094 207.105469 252.722656 205.085938 L 252.871094 204.785156 Z M 242.160156 202.011719 "/>
<path style=" stroke:none;fill-rule:nonzero;fill:rgb(100%,77.64706%,15.294118%);fill-opacity:1;" d="M 162.765625 50.183594 L 157.296875 57.375 L 149.730469 39.25 L 149.730469 122.914062 L 175.199219 90.257812 L 200.816406 96.925781 Z M 162.765625 50.183594 "/>
<path style=" stroke:none;fill-rule:nonzero;fill:rgb(100%,100%,100%);fill-opacity:1;" d="M 162.765625 69.808594 L 162.765625 50.183594 L 157.296875 57.375 Z M 162.765625 69.808594 "/>
<path style=" stroke:none;fill-rule:nonzero;fill:rgb(100%,100%,100%);fill-opacity:1;" d="M 149.730469 39.25 L 103.515625 95.652344 L 123.890625 90.40625 L 149.730469 122.914062 Z M 149.730469 39.25 "/>
<path style=" stroke:none;fill-rule:nonzero;fill:rgb(100%,77.64706%,15.294118%);fill-opacity:1;" d="M 122.617188 250.175781 C 129.113281 243.917969 137.53125 240.035156 146.511719 239.164062 L 146.511719 226.65625 L 111.980469 226.65625 C 112.660156 235.5 116.421875 243.824219 122.617188 250.175781 "/>
<path style=" stroke:none;fill-rule:nonzero;fill:rgb(100%,77.64706%,15.294118%);fill-opacity:1;" d="M 146.433594 261.785156 L 146.433594 246.953125 C 139.734375 247.777344 133.453125 250.652344 128.457031 255.195312 C 133.808594 258.851562 139.988281 261.117188 146.433594 261.785156 "/>
<path style=" stroke:none;fill-rule:nonzero;fill:rgb(100%,100%,100%);fill-opacity:1;" d="M 154.148438 185.011719 L 154.148438 199.765625 C 160.839844 198.992188 167.113281 196.105469 172.050781 191.527344 C 166.710938 187.914062 160.5625 185.675781 154.148438 185.011719 "/>
<path style=" stroke:none;fill-rule:nonzero;fill:rgb(100%,100%,100%);fill-opacity:1;" d="M 177.96875 196.621094 C 171.496094 202.855469 163.097656 206.710938 154.148438 207.554688 L 154.148438 218.941406 L 188.605469 218.941406 C 187.570312 210.546875 183.835938 202.710938 177.96875 196.621094 "/>
<path style=" stroke:none;fill-rule:nonzero;fill:rgb(100%,100%,100%);fill-opacity:1;" d="M 146.433594 199.765625 L 146.433594 185.011719 C 140.003906 185.65625 133.84375 187.921875 128.535156 191.601562 C 133.507812 196.117188 139.765625 198.972656 146.433594 199.765625 "/>
<path style=" stroke:none;fill-rule:nonzero;fill:rgb(100%,77.64706%,15.294118%);fill-opacity:1;" d="M 154.148438 226.65625 L 154.148438 239.164062 C 163.121094 239.988281 171.53125 243.875 177.96875 250.175781 C 184.210938 243.851562 188.007812 235.515625 188.679688 226.65625 Z M 154.148438 226.65625 "/>
<path style=" stroke:none;fill-rule:nonzero;fill:rgb(100%,100%,100%);fill-opacity:1;" d="M 111.980469 218.941406 L 146.433594 218.941406 L 146.433594 207.554688 C 137.472656 206.683594 129.0625 202.832031 122.542969 196.621094 C 116.695312 202.71875 112.988281 210.550781 111.980469 218.941406 "/>
<path style=" stroke:none;fill-rule:nonzero;fill:rgb(100%,77.64706%,15.294118%);fill-opacity:1;" d="M 154.148438 261.785156 C 160.578125 261.140625 166.738281 258.871094 172.050781 255.195312 C 167.105469 250.628906 160.835938 247.742188 154.148438 246.953125 Z M 154.148438 261.785156 "/>
</g>
</svg>

<?xml version="1.0" encoding="UTF-8" standalone="no"?>
<svg xmlns:rdf="http://www.w3.org/1999/02/22-rdf-syntax-ns#" xmlns="http://www.w3.org/2000/svg" height="299.6114" width="299.61142" version="1.1" xmlns:cc="http://creativecommons.org/ns#" xmlns:dc="http://purl.org/dc/elements/1.1/" viewBox="0 0 299.61142 299.6114"><path d="M149.88061,0A149.98872,149.98872,0,0,1,299.61142,149.8057c0,82.61783-67.18789,149.8057-149.73081,149.8057A149.78308,149.78308,0,0,1,43.89307,43.89307,148.83042,148.83042,0,0,1,149.88061,0" fill="#ffc627"/><path d="M149.88061,287.70185c75.95148,0,137.74633-61.79485,137.74633-137.89615,0-75.95149-61.79485-137.82124-137.74633-137.82124C73.77931,11.90955,11.98446,73.77931,11.98446,149.73079c0,76.1013,61.79485,137.97106,137.89615,137.97106" fill="#8b2332"/><path d="M22.17124,149.73079c0-70.33377,57.30068-127.55955,127.63446-127.55955a127.597,127.597,0,0,1,0,255.194c-70.33377.07491-127.63445-57.22577-127.63445-127.63445" fill="#0d2240"/><path d="M250.32533,96.32507l2.8463-1.573-9.13815-14.23154-2.5467,1.87257c-15.57978-19.69945-43.29384-41.646-69.65965-44.94171,19.84926,9.06324,42.1703,32.20823,55.80263,50.03511L213.32331,97.898l1.72275,2.6216L150.33,142.54014,85.61394,100.51963l1.72277-2.6216L72.95536,87.48654c13.70722-17.82688,35.95337-40.97186,55.87752-50.03511C102.542,40.74716,74.82793,62.69369,59.323,82.31824l-2.6965-1.94747L47.48838,94.52741l2.84631,1.64786-.0749.1498c-11.38524,22.396-19.77436,56.92617-11.60994,82.24333-.22471-21.87163,11.535-51.90768,22.09634-71.90674l15.43,8.68874,1.573-2.4718,60.07209,37.751L58.574,202.16279l-.14981-.14982-10.6362,2.8463.1498.29961c-.52432,1.94748.44942,5.61771,2.69651,9.13815,2.24708,3.59533,5.09339,5.91733,7.26557,6.36675l.1498.2996,7.04087-8.53892-.0749-.14981L222.836,113.02837l1.573,2.4718,15.5049-8.68874c10.56131,19.99906,22.321,50.11,22.17125,71.90674,8.0895-25.392-.37454-59.99715-11.75976-82.3931" fill="#ffc627"/><path d="M242.1609,202.013l-.14981.14982-72.88048-47.3386-12.73348,7.56519,79.17231,49.81041-.07491.14981,7.04087,8.53893.22469-.29961c2.09728-.37452,4.9436-2.77142,7.26559-6.36674,2.17218-3.52045,3.22081-7.11577,2.69651-9.13816l.14981-.29961L242.1609,202.013Z" fill="#ffc627"/><polygon points="162.764 50.185 157.296 57.376 149.731 39.249 149.731 122.916 175.198 90.258 200.815 96.924 162.764 50.185" fill="#ffc627"/><polygon points="162.764 69.809 162.764 50.185 157.296 57.376 162.764 69.809" fill="#fff"/><polygon points="149.731 39.249 103.516 95.651 123.889 90.408 149.731 122.916 149.731 39.249" fill="#fff"/><path d="M122.616,250.17552a40.00346,40.00346,0,0,1,23.894-11.01073V226.656H111.97976a37.84241,37.84241,0,0,0,10.6362,23.51951" fill="#ffc627"/><path d="M146.43507,261.78546V246.9547a32.628,32.628,0,0,0-17.97668,8.23932,39.01068,39.01068,0,0,0,17.97668,6.59144" fill="#ffc627"/><path d="M154.15007,185.01v14.75587a31.67833,31.67833,0,0,0,17.90177-8.23931A39.16293,39.16293,0,0,0,154.15007,185.01" fill="#fff"/><path d="M177.96918,196.62a39.71022,39.71022,0,0,1-23.81911,10.93582V218.941h34.45531A39.07179,39.07179,0,0,0,177.96918,196.62" fill="#fff"/><path d="M146.43507,199.76591V185.01a38.12132,38.12132,0,0,0-17.90178,6.59145,32.30829,32.30829,0,0,0,17.90178,8.16442" fill="#fff"/><path d="M154.15007,226.656v12.50878a39.18362,39.18362,0,0,1,23.81911,11.01073,37.52749,37.52749,0,0,0,10.71111-23.51949H154.15007Z" fill="#ffc627"/><path d="M111.97976,218.941h34.45531V207.55578a40.31076,40.31076,0,0,1-23.894-10.93582A38.98088,38.98088,0,0,0,111.97976,218.941" fill="#fff"/><path d="M154.15007,261.78546a38.12133,38.12133,0,0,0,17.90177-6.59144,31.90465,31.90465,0,0,0-17.90177-8.23932v14.83076Z" fill="#ffc627"/></svg>
